common/svg/code-icon.svg

<svg fill="none" height="20" viewBox="0 0 20 20" width="20" xmlns="http://www.w3.org/2000/svg"><g fill="#000"><path d="m4.99802 14.403-3.92402-4.0876c-.32596-.3395-.32596-.88833 0-1.22792l3.92402-4.08748 1.17879 1.2279-3.33462 3.47358 3.33462 3.47362z"/><path d="m15.002 14.403-1.1788-1.2279 3.3346-3.47362-3.3346-3.47358 1.1788-1.2279 3.924 4.08748c.326.33959.326.88842 0 1.22792z"/><path d="m11.0625 2-3.7417 15.579 1.6175.4215 3.7416-15.57898z"/></g></svg>

<svg width="20" height="20" viewBox="0 0 20 20" fill="none" xmlns="http://www.w3.org/2000/svg">
<path d="M4.99802 14.403L1.074 10.3154C0.74804 9.9759 0.74804 9.42707 1.074 9.08748L4.99802 5L6.17681 6.2279L2.84219 9.70148L6.17681 13.1751L4.99802 14.403Z" fill="black"/>
<path d="M15.002 14.403L13.8232 13.1751L17.1578 9.70148L13.8232 6.2279L15.002 5L18.926 9.08748C19.252 9.42707 19.252 9.9759 18.926 10.3154L15.002 14.403Z" fill="black"/>
<path d="M11.0625 2L7.3208 17.579L8.9383 18.0005L12.6799 2.42152L11.0625 2Z" fill="black"/>
</svg>
